X:194
T:Jig
R:jig
A:Kilkenny
B:
O:Irish
M:6/8
L:1/8
K:D
EFA BcB|BAF d3|EFA BcB|BAF AFD|
EFA BcB|BAF d2 e|f2 e d2 B|BAF AFG:|
|:E2 e e3|BAF d3|E2 e e3|BAF AFD|
|:f2 e d2 B|BAF d3|f2 e d2 B|BAF AFD|
